X: 1
M: 2/4
L: 1/8
K: Dmaj
dd ee | d/c/B/A/ AB/c/ | dd e/d/e/f/ | d2 z :|
|: f/g/ | aa ff | gg e2 | fd Bd | d/c/e/c/ Af/g/ |
aa ff | gg e2 | e/f/B/e/ dc | d2 z :|


